UI/POI/SVG/police_outline_24px.svg

<svg width="24" height="24" viewBox="0 0 24 24" fill="none" xmlns="http://www.w3.org/2000/svg">
<path d="M12 2L2 9L6 12H8.54C8.18749 11.3923 8.00125 10.7025 8 10H6.67L5.29 9L12 4L18.71 9L17.33 10H16C15.9988 10.7025 15.8125 11.3923 15.46 12H18L22 9L12 2ZM16 14V16C16 17.0609 15.5786 18.0783 14.8284 18.8284C14.0783 19.5786 13.0609 20 12 20C10.9391 20 9.92172 19.5786 9.17157 18.8284C8.42143 18.0783 8 17.0609 8 16V14H6V16C6 17.5913 6.63214 19.1174 7.75736 20.2426C8.88258 21.3679 10.4087 22 12 22C13.5913 22 15.1174 21.3679 16.2426 20.2426C17.3679 19.1174 18 17.5913 18 16V14H16ZM12 12C11.4696 12 10.9609 11.7893 10.5858 11.4142C10.2107 11.0391 10 10.5304 10 10V8H14V10C14 10.5304 13.7893 11.0391 13.4142 11.4142C13.0391 11.7893 12.5304 12 12 12Z" fill="#0F1621"/>
</svg>

<svg xmlns="http://www.w3.org/2000/svg" width="24" height="24" viewBox="0 0 24 24"><rect width="24" height="24" style="fill:none"/><path d="M12,2,2,9l4,3H8.54A4,4,0,0,1,8,10H6.67L5.29,9,12,4l6.71,5-1.38,1H16a4,4,0,0,1-.54,2H18l4-3Zm4,12v2a4,4,0,0,1-8,0V14H6v2a6,6,0,0,0,12,0V14Zm-4-2h0a2,2,0,0,1-2-2V8h4v2A2,2,0,0,1,12,12Z"/></svg>
